X:58
T: Arme Seele
N: D0062
O: Europa, Mitteleuropa, Lothringen, Woelflingen
N: Inzipit = Variante zum Lied ( siehe folgendes Beispiel )
R: geistliches Lied
M: 3/8
L: 1/16
K: A
D2 | A2A2A2 | =G2F2E2 | =c2B2A2 | B2z2
=G2 | B2=c2dd | =c2B2A2 | =G2A2B2 | A2z2

@@@ Tune index: 2580
